X: 612
T: Puopuo bianda xifu
L: 1/16
M: 2/4
K: A
c c2 cB4 [I:setbarnb 1]| 
c e c BA4 | 
B B2 c B B2 A | 
B A G FE4 | 
E E2 F B B2 c | 
B c B AF4 | 
F F2 B B A2 F | 
E C E F A B G F | 
E F E CB,4 |]

@@@ Tune index: 9486
